!!!COM: Giovanni Maria Nanino
!!!OPR: Fourteen Liturgical Works
!!!OTL: Qui vult venire post me
!!!YOR: Richard J. Schuler (editor)
!!!YOR: Madison: A-R Editions, 1969, pp. 19-21.
!! N.B. There are two consequentes, one after a half-note,
!! and the other after a whole-note.
!! Canon at the fifth above (first consequente) and at the
!! fourth below (second consequente).
**kern	**kern	**kern	**kern	**kern
*conseq	*guida	*conseq	*freeV	*CF
*k[]	*k[]	*k[]	*k[]	*k[]
*M4/4	*M4/4	*M4/4	*M4/4	*M4/4
=1-	=1-	=1-	=1-	=1-
1r	2D	2r	4d	1a
.	.	.	2f	.
.	2F	2A	.	.
.	.	.	[4a	.
=2	=2	=2	=2	=2
2AA	2C	2c	4a]	1e
.	.	.	2cc	.
2C	4.E	2G	.	.
.	.	.	[4g	.
.	8F	.	.	.
=3	=3	=3	=3	=3
2GG	2G	4.B	4g]	1d
.	.	.	4.b	.
.	.	8c	.	.
4.BB	4D	2d	.	.
.	.	.	8cc	.
.	4G	.	[4dd	.
8C	.	.	.	.
=4	=4	=4	=4	=4
2D	4F	4A	4dd]	1f
.	4D	4d	2a	.
4AA	2F	4c	.	.
4D	.	4A	8g	.
.	.	.	8f	.
=5	=5	=5	=5	=5
4C	4r	2c	4g	1e
4AA	4C	.	4a	.
2C	4.E	4r	2g	.
.	.	4G	.	.
.	8F	.	.	.
=6	=6	=6	=6	=6
4r	2G	4.B	4r	1d
4GG	.	.	2b	.
.	.	8c	.	.
4.BB	4.D	2d	.	.
.	.	.	[4dd	.
8C	8G	.	.	.
=7	=7	=7	=7	=7
2D	8F	4.A	4dd]	1f
.	8E	.	.	.
.	8F	.	4a	.
.	8G	8d	.	.
4.AA	4A	8c	4.a	.
.	.	8B	.	.
.	4r	8c	.	.
8D	.	8d	8b	.
=8	=8	=8	=8	=8
8C	4r	4e	2cc	1g
8BB	.	.	.	.
8C	4.G	4r	.	.
8D	.	.	.	.
4E	.	4r	4b	.
.	8A	.	.	.
4r	8B	[4d	4g	.
.	8G	.	.	.
=9	=9	=9	=9	=9
4r	4.d	8d]	4f	1a
.	.	8e	.	.
4.D	.	8f	8.d	.
.	16c	8d	.	.
.	16B	.	16e	.
.	4A	4.a	8f	.
8E	.	.	8g	.
8F	4d	.	[4a	.
8D	.	16g	.	.
.	.	16f	.	.
=10	=10	=10	=10	=10
4.A	4c	4e	8a]	1cc
.	.	.	8b	.
.	8A	4a	8cc	.
16G	8B	.	8dd	.
16F	.	.	.	.
4E	4c	4g	[2ee	.
4A	4c	8e	.	.
.	.	8f	.	.
=11	=11	=11	=11	=11
4G	4r	4g	4ee]	1b
8E	4.G	4g	4ee	.
8F	.	.	.	.
4G	.	4r	4dd	.
.	8A	.	.	.
4G	8B	[4d	8d	.
.	8G	.	8e	.
=12	=12	=12	=12	=12
4r	4.d	8d]	8f	1a
.	.	8e	8g	.
4.D	.	8f	4a	.
.	16c	8d	.	.
.	16B	.	.	.
.	4A	4.a	4f	.
8E	.	.	.	.
8F	4d	.	[4a	.
8D	.	16g	.	.
.	.	16f	.	.
=13	=13	=13	=13	=13
4.A	4c	4e	8a]	1cc
.	.	.	8b	.
.	4r	4a	8cc	.
16G	.	.	8dd	.
16F	.	.	.	.
4E	4e	4g	4.ee	.
4A	4e	4r	.	.
.	.	.	8a	.
=14	=14	=14	=14	=14
4G	2g	4b	8b	1dd
.	.	.	8cc	.
4r	.	4b	4dd	.
4B	4g	2dd	4.g	.
4B	4r	.	.	.
.	.	.	8a	.
=15	=15	=15	=15	=15
2d	4.G	4dd	8b	1g
.	.	.	8a	.
.	.	4r	8b	.
.	8A	.	8cc	.
4d	4B-	4.d	4dd	.
4r	4B-	.	[4d	.
.	.	8e	.	.
=16	=16	=16	=16	=16
4.D	2F	4f	8d]	1a
.	.	.	8e	.
.	.	4f	4f	.
8E	.	.	.	.
4F	4A	2c	4f	.
4F	4A	.	[4c	.
=17	=17	=17	=17	=17
2C	2c	4e	4c]	1g
.	.	4e	4.e	.
4E	4.G	2g	.	.
.	.	.	8f	.
4E	.	.	[4g	.
.	8A	.	.	.
=18	=18	=18	=18	=18
2G	8B	4.d	4g]	1dd
.	8A	.	.	.
.	8B	.	2d	.
.	8c	8e	.	.
4.D	2d	8f	.	.
.	.	8e	.	.
.	.	8f	[4a	.
8E	.	8g	.	.
=19	=19	=19	=19	=19
8F	2r	2a	8a]	1cc
8E	.	.	8g	.
8F	.	.	4f	.
8G	.	.	.	.
2A	4e	2r	4e	.
.	8e	.	4r	.
.	8e	.	.	.
=20	=20	=20	=20	=20
2r	2g	4b	1r	1dd
.	.	8b	.	.
.	.	8b	.	.
4B	4g	2dd	.	.
8B	4r	.	.	.
8B	.	.	.	.
=21	=21	=21	=21	=21
2d	4G	4dd	4b	1g
.	8G	4r	8b	.
.	8G	.	8b	.
4d	4B-	4d	4dd	.
4r	4G	8d	4b-	.
.	.	8d	.	.
=22	=22	=22	=22	=22
4D	1r	4f	1a	1f
8D	.	4d	.	.
8D	.	.	.	.
4F	.	2r	.	.
4D	.	.	.	.
=23	=23	=23	=23	=23
1r	4G	2r	2d	1b-
.	8G	.	.	.
.	8G	.	.	.
.	4B-	4d	2r	.
.	4G	8d	.	.
.	.	8d	.	.
=24	=24	=24	=24	=24
4D	2d	4f	8d	1a
.	.	.	8d	.
8D	.	4d	4f	.
8D	.	.	.	.
4F	4d	2a	4d	.
4D	4r	.	4f	.
=25	=25	=25	=25	=25
2A	4D	4a	4.f	1a
.	8D	4r	.	.
.	8D	.	8f	.
4A	4F	4A	4a	.
4r	4D	8A	4f	.
.	.	8A	.	.
=26	=26	=26	=26	=26
4AA	4A	4c	4e	1e
8AA	4A	4A	4c	.
8AA	.	.	.	.
4C	2r	4e	2r	.
4AA	.	4e	.	.
=27	=27	=27	=27	=27
4E	4G	2r	4b	1g
4E	8G	.	8b	.
.	8G	.	8b	.
2r	4B-	4d	4dd	.
.	4G	8d	4b-	.
.	.	8d	.	.
=28	=28	=28	=28	=28
4D	2.d	4f	4a	1a
8D	.	4d	4f	.
8D	.	.	.	.
4F	.	[2a	8r	.
.	.	.	4f	.
4D	4d	.	.	.
.	.	.	8d	.
=29	=29	=29	=29	=29
2.A	4r	4a]	4e	1cc
.	8A	4a	4f	.
.	8B	.	.	.
.	4c	4r	2e	.
4A	4c	8e	.	.
.	.	8f	.	.
=30	=30	=30	=30	=30
4r	2G	4g	1r	1b
8E	.	4g	.	.
8F	.	.	.	.
4G	4r	2d	.	.
4G	8d	.	.	.
.	8e	.	.	.
=31	=31	=31	=31	=31
2D	4f	4r	8d	1a
.	.	.	8e	.
.	4f	8a	4f	.
.	.	8b	.	.
4r	4r	4cc	4f	.
8A	8c	4cc	[4c	.
8B	8d	.	.	.
=32	=32	=32	=32	=32
4c	8e	4r	8c]	1g
.	8f	.	8d	.
4c	4g	8g	8e	.
.	.	8a	8f	.
4r	8G	8b	8g	.
.	8A	8cc	16f	.
.	.	.	16e	.
8G	8B	4dd	4d	.
8A	8c	.	.	.
=33	=33	=33	=33	=33
8B-	4d	8d	2r	1f
8c	.	8e	.	.
4d	8D	8f	.	.
.	8E	8g	.	.
8D	4F	4a	4r	.
8E	.	.	.	.
8F	4F	8A	[4a	.
8G	.	8Bn	.	.
=34	=34	=34	=34	=34
4A	2C	4c	8a]	1e
.	.	.	8b	.
8AA	.	4c	4.cc	.
8BB	.	.	.	.
4C	2r	2G	.	.
.	.	.	16b	.
.	.	.	16a	.
4C	.	.	8g	.
.	.	.	8a	.
=35	=35	=35	=35	=35
2GG	4.D	2r	4b-	1d
.	.	.	4b-	.
.	8E	.	.	.
2r	4F	4.A	4a	.
.	4F	.	[4a	.
.	.	8B	.	.
=36	=36	=36	=36	=36
4.AA	4.C	4c	8a]	1e
.	.	.	8b	.
.	.	4c	4cc	.
8BB	8D	.	.	.
4C	8E	4.G	4cc	.
.	8D	.	.	.
4C	8E	.	[4g	.
.	8F	8A	.	.
=37	=37	=37	=37	=37
4.GG	4.G	8B	4g]	[1d
.	.	8A	.	.
.	.	8B	4.dd	.
8AA	16F	8c	.	.
.	16E	.	.	.
8BB	4D	4.d	.	.
8AA	.	.	8cc	.
8BB	[4G	.	[4dd	.
8C	.	16c	.	.
.	.	16B	.	.
=38	=38	=38	=38	=38
[1D	4G]	[1A	4dd]	1d_
.	8F#	.	4a	.
.	8E	.	.	.
.	[2F#	.	[2a	.
=39	=39	=39	=39	=39
1D]	1F#]	1A]	1a]	1d]
==	==	==	==	==
*-	*-	*-	*-	*-
!!!CDT: 1545///-1607/3/11
!!!OCY: Italia
!!!ODT: 1586
!!!AFR: cantus firmus canon
!!!AST: polyphony
!!!AMT: simple quadruple
!!!AIN: vox
!!!YEP: David Huron and Denis Collins
!!!YEN: Canada
!!!EEV: 1.0
!!!RDT: 1995 April 29
!!!YED: 1995 August 31
